Numix-GalliumOS/32/status/printer-printing.svg

<?xml version="1.0" encoding="UTF-8" standalone="no"?>
<svg
   xmlns:dc="http://purl.org/dc/elements/1.1/"
   xmlns:cc="http://creativecommons.org/ns#"
   xmlns:rdf="http://www.w3.org/1999/02/22-rdf-syntax-ns#"
   xmlns:svg="http://www.w3.org/2000/svg"
   xmlns="http://www.w3.org/2000/svg"
   xmlns:sodipodi="http://sodipodi.sourceforge.net/DTD/sodipodi-0.dtd"
   xmlns:inkscape="http://www.inkscape.org/namespaces/inkscape"
   width="32"
   height="32"
   viewBox="0 0 32 32"
   id="svg2"
   version="1.1"
   inkscape:version="0.91 r13725"
   sodipodi:docname="printer-printing.svg">
  <metadata
     id="metadata16">
    <rdf:RDF>
      <cc:Work
         rdf:about="">
        <dc:format>image/svg+xml</dc:format>
        <dc:type
           rdf:resource="http://purl.org/dc/dcmitype/StillImage" />
        <dc:title></dc:title>
      </cc:Work>
    </rdf:RDF>
  </metadata>
  <defs
     id="defs14" />
  <sodipodi:namedview
     pagecolor="#ffffff"
     bordercolor="#666666"
     borderopacity="1"
     objecttolerance="10"
     gridtolerance="10"
     guidetolerance="10"
     inkscape:pageopacity="0"
     inkscape:pageshadow="2"
     inkscape:window-width="1366"
     inkscape:window-height="704"
     id="namedview12"
     showgrid="false"
     inkscape:zoom="1"
     inkscape:cx="16"
     inkscape:cy="16"
     inkscape:window-x="0"
     inkscape:window-y="27"
     inkscape:window-maximized="1"
     inkscape:current-layer="svg2" />
  <g
     style="fill-rule:evenodd"
     id="g4">
    <path
       style="fill:#aaa;fill-opacity:.941"
       d="M 9.332031 0.0078125 L 22.667969 0.0078125 C 26 0.0078125 26 -0.324219 26 3.339844 L 26 16.667969 C 26 20 26 20 22.667969 20 L 9.332031 20 C 6 20 6 20 6 16.667969 L 6 3.339844 C 6 0.0078125 6 0.0078125 9.332031 0.0078125 Z "
       id="path6" />
    <path
       style="fill:#ccc"
       d="M 3.199219 8 L 28.800781 8 C 32 8 32 8 32 11.199219 L 32 20.800781 C 32 24 32 24 28.800781 24 L 3.199219 24 C 0 24 0 24 0 20.800781 L 0 11.199219 C 0 8 0 8 3.199219 8 Z "
       id="path8" />
  </g>
  <path
     style="fill:#dc322f"
     d="M 6 16 L 26 16 L 26 32 L 6 32 Z "
     id="path10" />
  <rect
     style="opacity:1;fill:#ffffff;fill-opacity:1;stroke:none;stroke-width:4;stroke-linecap:round;stroke-linejoin:round;stroke-miterlimit:4;stroke-dasharray:none;stroke-opacity:1"
     id="rect4148"
     width="4"
     height="8"
     x="14"
     y="18" />
  <path
     style="opacity:1;fill:#ffffff;fill-opacity:1;stroke:none;stroke-width:4;stroke-linecap:round;stroke-linejoin:round;stroke-miterlimit:4;stroke-dasharray:none;stroke-opacity:1"
     d="m 10,24 12,0 -6,6 z"
     id="rect4150"
     inkscape:connector-curvature="0"
     sodipodi:nodetypes="cccc" />
</svg>

<svg xmlns="http://www.w3.org/2000/svg" viewBox="0 0 32 32">
 <g style="fill-rule:evenodd">
  <path d="m 9.332 0.008 l 13.336 0 c 3.332 0 3.332 -0.332 3.332 3.332 l 0 13.328 c 0 3.332 0 3.332 -3.332 3.332 l -13.336 0 c -3.332 0 -3.332 0 -3.332 -3.332 l 0 -13.328 c 0 -3.332 0 -3.332 3.332 -3.332 Z" style="fill:#aaa;fill-opacity:0.941"/>
  <path d="M 3.199219 8 L 28.800781 8 C 32 8 32 8 32 11.199219 L 32 20.800781 C 32 24 32 24 28.800781 24 L 3.199219 24 C 0 24 0 24 0 20.800781 L 0 11.199219 C 0 8 0 8 3.199219 8 Z " style="fill:#ccc"/>
 </g>
 <path d="m 6 16 l 20 0 l 0 16 l -20 0 Z" style="fill:#dc322f"/>
 <rect width="4" height="8" x="14" y="18" style="fill:#fff;opacity:1;fill-opacity:1;stroke:none"/>
 <path d="m 10 24 12 0 -6 6 z" style="fill:#fff;opacity:1;fill-opacity:1;stroke:none"/>
</svg>
